dist/uploads/catalog-sidebar-icons/1/i-catalog-13.svg

<svg width="30" height="30" viewBox="0 0 30 30" fill="none" xmlns="http://www.w3.org/2000/svg">
<g clip-path="url(#clip0)">
<path d="M22.5 20.0001C22.4989 19.0059 22.1034 18.0527 21.4004 17.3497C20.6974 16.6467 19.7442 16.2512 18.75 16.2501H16.25V10.0001C16.4558 10.0001 16.6584 9.94932 16.8398 9.85223C17.0212 9.75514 17.1758 9.61476 17.29 9.44356L19.4189 6.25012H10.5811L12.71 9.44356C12.8242 9.61476 12.9788 9.75514 13.1602 9.85223C13.3416 9.94932 13.5442 10.0001 13.75 10.0001V16.2501H11.25C10.2558 16.2512 9.3026 16.6467 8.59958 17.3497C7.89656 18.0527 7.50112 19.0059 7.5 20.0001V27.5001H3.75V30.0001H8.75C9.08152 30.0001 9.39946 29.8684 9.63388 29.634C9.8683 29.3996 10 29.0816 10 28.7501V20.0001C10.0004 19.6687 10.1322 19.351 10.3665 19.1166C10.6009 18.8823 10.9186 18.7505 11.25 18.7501H13.75V30.0001H16.25V18.7501H18.75C19.0814 18.7505 19.3991 18.8823 19.6335 19.1166C19.8678 19.351 19.9996 19.6687 20 20.0001V28.7501C20 29.0816 20.1317 29.3996 20.3661 29.634C20.6005 29.8684 20.9185 30.0001 21.25 30.0001H26.25V27.5001H22.5V20.0001Z" fill="#FFC800"/>
<path d="M28.75 0H1.25C0.559644 0 0 0.559644 0 1.25V3.75C0 4.44036 0.559644 5 1.25 5H28.75C29.4404 5 30 4.44036 30 3.75V1.25C30 0.559644 29.4404 0 28.75 0Z" fill="#FFC800"/>
</g>
<defs>
<clipPath id="clip0">
<rect width="30" height="30" fill="white"/>
</clipPath>
</defs>
</svg>

<svg width="30" height="30" fill="none" xmlns="http://www.w3.org/2000/svg"><g clip-path="url(#clip0)" fill="#FFC800"><path d="M22.5 20a3.754 3.754 0 0 0-3.75-3.75h-2.5V10a1.25 1.25 0 0 0 1.04-.556l2.129-3.194H10.58l2.129 3.194a1.25 1.25 0 0 0 1.04.556v6.25h-2.5A3.754 3.754 0 0 0 7.5 20v7.5H3.75V30h5A1.25 1.25 0 0 0 10 28.75V20a1.252 1.252 0 0 1 1.25-1.25h2.5V30h2.5V18.75h2.5A1.252 1.252 0 0 1 20 20v8.75A1.25 1.25 0 0 0 21.25 30h5v-2.5H22.5V20zm6.25-20H1.25C.56 0 0 .56 0 1.25v2.5C0 4.44.56 5 1.25 5h27.5C29.44 5 30 4.44 30 3.75v-2.5C30 .56 29.44 0 28.75 0z"/></g><defs><clipPath id="clip0"><path fill="#fff" d="M0 0h30v30H0z"/></clipPath></defs></svg>
